X:1
T:Title
%%score { ( 1 3 ) | ( 2 4 ) }
L:1/8
M:4/4
K:C
V:1 treble nm="Grand Piano"
V:3 treble 
V:2 bass 
V:4 bass 
V:1
 z4 z2 z[Q:1/4=94] [EG] | [EG][EG][EG][EG] [CE]3 [EG] | AcBA [EG]3 [EG] | %3
 [EG][EG][EG][EG] [CE]3 [EG] | [FA][EG][DF]E D3 [FG] | [EG][EG][EG][EG] [CE] [EG]2 [EG] | %6
 AcBA [EG]3 [CE] | [EG]2 [EG]2 [DF]3 [B,D] |[M:7/8] [B,D]C-C- C- C3 |[M:1/8] [EG] | %10
[M:4/4] [EG]3 [EG] [CE]3 [Ec] | c4 z4 | [EG]3 [EG] [CE]3 [EG] | %13
 [FA][EG] [EG]>[G,CE] [G,B,D]3 [B,FG] | G4 z4 | c2 c2 d c2 A | A G2 E [DF][DF][CE][B,D] | %17
[M:7/8] C-C-C- C3 z |] %18
V:2
 z4 z2 z [C,C] | [C,C][C,C][C,C][C,C] [C,G,]3 [C,C] | [F,CF][F,A,F][F,CF][F,CF] [C,C]3 [C,C] | %3
 [C,C][C,C][C,C][C,C] [C,G,]3 [C,C] | [C,C][C,C][C,G,][C,G,C] [G,B,]3 [D,B,] | %5
 [C,C][C,C][C,C][C,C] [C,G,] [C,C]2 [C,C] | [F,CF][F,A,F][F,CF][F,CF] [C,C]3 [C,G,] | %7
 [G,,G,]2 [G,,G,]2 [G,,G,]3 [G,,G,] |[M:7/8] [G,,F,][C,E,]-[C,E,]- [C,E,]- [C,E,]3 |[M:1/8] [C,C] | %10
[M:4/4] [C,C]3 [C,C] [C,G,]3 [C,G,] | .[A,F]2 z2 z4 | [C,C]3 [C,C] [C,G,]3 [C,C] | %13
 [C,C][C,C] [C,C]>C, G,,3 D, | z2 CC, C,3 [C,_B,] | [F,A,F]2 [F,A,F]2 [F,B,F] [F,A,F]2 [F,CF] | %16
 [G,CF][K:bass] [G,CE]2 [G,C] [G,,G,][G,,G,][G,,G,][G,,F,] | %17
[M:7/8] [C,E,]-[C,E,]-[C,E,]- [C,E,]3 z |] %18
V:3
 x8 | x8 | x8 | x8 | x8 | x8 | x8 | x8 |[M:7/8] x7 |[M:1/8] x |[M:4/4] x8 | z FFc d c2 A | x8 | %13
 x8 | [CE]2 E[CEG] [G,CE]3 [Ec] | x8 | x8 |[M:7/8] x7 |] %18
V:4
 x8 | x8 | x8 | x8 | x8 | x8 | x8 | x8 |[M:7/8] x7 |[M:1/8] x |[M:4/4] x8 | %11
 F,-[F,-A,][F,A,][F,A,F] [F,A,F] [F,A,F]2 [F,CF] | x8 | x8 | C,4 z4 | x8 | x[K:bass] x7 | %17
[M:7/8] x7 |] %18

